en/_assets/console-icons/neuro-tag.svg

<svg width="20" height="20" viewBox="0 0 20 20" fill="none" xmlns="http://www.w3.org/2000/svg">
<path d="M3.32031 18.877V14.4238M1.09375 16.6504H5.54688M10.8906 1.95508L9.34612 5.97078C9.09496 6.62382 8.96937 6.95033 8.77408 7.22498C8.601 7.4684 8.38832 7.68108 8.1449 7.85416C7.87025 8.04945 7.54374 8.17503 6.8907 8.4262L2.875 9.9707L6.89071 11.5152C7.54374 11.7664 7.87026 11.892 8.1449 12.0872C8.38832 12.2603 8.601 12.473 8.77408 12.7164C8.96937 12.9911 9.09496 13.3176 9.34612 13.9706L10.8906 17.9863L12.4351 13.9706C12.6863 13.3176 12.8119 12.9911 13.0072 12.7164C13.1803 12.473 13.3929 12.2603 13.6363 12.0872C13.911 11.892 14.2375 11.7664 14.8905 11.5152L18.9062 9.9707L14.8905 8.4262C14.2375 8.17503 13.911 8.04945 13.6363 7.85416C13.3929 7.68108 13.1803 7.4684 13.0072 7.22498C12.8119 6.95033 12.6863 6.62382 12.4351 5.97078L10.8906 1.95508Z" stroke="var(--g-color-text-primary)" stroke-opacity="0.85" stroke-width="1.5" stroke-linecap="round" stroke-linejoin="round"/>
</svg>

<svg xmlns="http://www.w3.org/2000/svg" width="20" height="20" fill="none" viewBox="0 0 20 20">
    <path stroke="var(--g-color-text-primary)" stroke-linecap="round" stroke-linejoin="round" stroke-opacity=".85" stroke-width="1.5" d="M3.32 18.877v-4.453M1.094 16.65h4.453M10.89 1.955 9.346 5.971c-.251.653-.377.98-.572 1.254a2.672 2.672 0 0 1-.63.63c-.274.194-.6.32-1.253.571L2.875 9.971l4.016 1.544c.653.251.98.377 1.254.572.243.173.456.386.63.63.194.274.32.6.571 1.254l1.545 4.015 1.544-4.015c.251-.653.377-.98.572-1.255.173-.243.386-.456.63-.629.274-.195.6-.32 1.253-.572l4.016-1.544-4.015-1.545c-.653-.251-.98-.377-1.255-.572a2.672 2.672 0 0 1-.629-.629c-.195-.275-.32-.601-.572-1.254l-1.544-4.016Z"/>
</svg>
